dist/release/static/symbols/device/other.svg

<?xml version="1.0" encoding="UTF-8" standalone="no"?>
<!-- Created with Inkscape (http://www.inkscape.org/) -->

<svg
   xmlns:dc="http://purl.org/dc/elements/1.1/"
   xmlns:cc="http://creativecommons.org/ns#"
   xmlns:rdf="http://www.w3.org/1999/02/22-rdf-syntax-ns#"
   xmlns:svg="http://www.w3.org/2000/svg"
   xmlns="http://www.w3.org/2000/svg"
   xmlns:sodipodi="http://sodipodi.sourceforge.net/DTD/sodipodi-0.dtd"
   xmlns:inkscape="http://www.inkscape.org/namespaces/inkscape"
   width="24"
   height="24"
   viewBox="0 0 24 24"
   id="svg2"
   version="1.1"
   inkscape:version="0.91 r13725"
   sodipodi:docname="other.svg">
  <defs
     id="defs4">
    <inkscape:perspective
       id="perspective10"
       inkscape:persp3d-origin="372.04724 : 350.78739 : 1"
       inkscape:vp_z="744.09448 : 526.18109 : 1"
       inkscape:vp_y="0 : 1000 : 0"
       inkscape:vp_x="0 : 526.18109 : 1"
       sodipodi:type="inkscape:persp3d" />
    <inkscape:perspective
       sodipodi:type="inkscape:persp3d"
       inkscape:vp_x="0 : 526.18109 : 1"
       inkscape:vp_y="0 : 1000 : 0"
       inkscape:vp_z="744.09448 : 526.18109 : 1"
       inkscape:persp3d-origin="372.04724 : 350.78739 : 1"
       id="perspective2390" />
    <inkscape:perspective
       sodipodi:type="inkscape:persp3d"
       inkscape:vp_x="0 : 526.18109 : 1"
       inkscape:vp_y="0 : 1000 : 0"
       inkscape:vp_z="744.09448 : 526.18109 : 1"
       inkscape:persp3d-origin="372.04724 : 350.78739 : 1"
       id="perspective2403" />
    <inkscape:perspective
       id="perspective2437"
       inkscape:persp3d-origin="32 : 21.333333 : 1"
       inkscape:vp_z="64 : 32 : 1"
       inkscape:vp_y="0 : 1000 : 0"
       inkscape:vp_x="0 : 32 : 1"
       sodipodi:type="inkscape:persp3d" />
    <inkscape:perspective
       id="perspective4043"
       inkscape:persp3d-origin="32 : 21.333333 : 1"
       inkscape:vp_z="64 : 32 : 1"
       inkscape:vp_y="0 : 1000 : 0"
       inkscape:vp_x="0 : 32 : 1"
       sodipodi:type="inkscape:persp3d" />
    <inkscape:perspective
       id="perspective2429"
       inkscape:persp3d-origin="32 : 21.333333 : 1"
       inkscape:vp_z="64 : 32 : 1"
       inkscape:vp_y="0 : 1000 : 0"
       inkscape:vp_x="0 : 32 : 1"
       sodipodi:type="inkscape:persp3d" />
    <inkscape:perspective
       id="perspective12440"
       inkscape:persp3d-origin="32 : 21.333333 : 1"
       inkscape:vp_z="64 : 32 : 1"
       inkscape:vp_y="0 : 1000 : 0"
       inkscape:vp_x="0 : 32 : 1"
       sodipodi:type="inkscape:persp3d" />
    <inkscape:perspective
       id="perspective4043-9"
       inkscape:persp3d-origin="32 : 21.333333 : 1"
       inkscape:vp_z="64 : 32 : 1"
       inkscape:vp_y="0 : 1000 : 0"
       inkscape:vp_x="0 : 32 : 1"
       sodipodi:type="inkscape:persp3d" />
    <inkscape:perspective
       id="perspective11498"
       inkscape:persp3d-origin="32 : 21.333333 : 1"
       inkscape:vp_z="64 : 32 : 1"
       inkscape:vp_y="0 : 1000 : 0"
       inkscape:vp_x="0 : 32 : 1"
       sodipodi:type="inkscape:persp3d" />
  </defs>
  <sodipodi:namedview
     id="base"
     pagecolor="#ffffff"
     bordercolor="#666666"
     borderopacity="1.0"
     inkscape:pageopacity="0.0"
     inkscape:pageshadow="2"
     inkscape:zoom="1"
     inkscape:cx="-199.85676"
     inkscape:cy="-106.11944"
     inkscape:document-units="px"
     inkscape:current-layer="layer3"
     showgrid="true"
     units="px"
     inkscape:window-width="1858"
     inkscape:window-height="1153"
     inkscape:window-x="62"
     inkscape:window-y="25"
     inkscape:window-maximized="1">
    <inkscape:grid
       type="xygrid"
       id="grid4136" />
  </sodipodi:namedview>
  <metadata
     id="metadata7">
    <rdf:RDF>
      <cc:Work
         rdf:about="">
        <dc:format>image/svg+xml</dc:format>
        <dc:type
           rdf:resource="http://purl.org/dc/dcmitype/StillImage" />
        <dc:title></dc:title>
      </cc:Work>
    </rdf:RDF>
  </metadata>
  <g
     inkscape:label="Layer 1"
     inkscape:groupmode="layer"
     id="layer1"
     transform="translate(0,-1028.3622)" />
  <g
     inkscape:groupmode="layer"
     id="layer3"
     inkscape:label="Layer 2">
    <path
       sodipodi:type="inkscape:offset"
       inkscape:radius="0.99737203"
       inkscape:original="M 12.078125 1 C 6.340113 1 5 5.7385325 5 5.8671875 L 9.015625 7.6933594 C 9.298666 6.5869267 10.200103 5.0195311 12.052734 5.0195312 C 13.210629 5.0195312 14.996094 5.917256 14.996094 7.1523438 C 14.996094 8.9792443 12.782482 9.0570379 11.212891 10.060547 C 10.054996 10.806746 10.000216 11.733085 10.005859 12.865234 L 10.005859 16 L 14.005859 16 L 14.005859 14.228516 C 14.005859 13.379393 14.031399 12.659401 14.90625 12.273438 C 17.376426 11.218466 19 9.6739811 19 7.1523438 C 19 3.5242737 15.937774 1.0000001 12.078125 1 z M 12 17 C 10.343146 17 9 18.343146 9 20 C 9 21.656854 10.343146 23 12 23 C 13.656854 23 15 21.656854 15 20 C 15 18.343146 13.656854 17 12 17 z "
       style="font-style:normal;font-weight:normal;font-size:25.73099327px;line-height:125%;font-family:sans-serif;letter-spacing:0px;word-spacing:0px;fill:#7c3100;fill-opacity:1;stroke:none;stroke-width:1px;stroke-linecap:butt;stroke-linejoin:miter;stroke-opacity:1"
       id="path5045"
       d="M 12.078125,0.00195313 C 8.934571,0.00195313 6.8399726,1.35553 5.6367188,2.7285156 5.0350918,3.4150084 4.6424469,4.0984722 4.3945312,4.6308594 4.2705734,4.897053 4.1826999,5.1258576 4.1230469,5.3027344 c -0.029827,0.088438 -0.052323,0.1634707 -0.070312,0.2304687 -0.00899,0.033499 -0.015481,0.06417 -0.023437,0.1015625 -0.00796,0.037393 -0.027344,0.011965 -0.027344,0.2324219 a 0.99747177,0.99747177 0 0 0 0.5859375,0.9082031 l 4.015625,1.8261719 A 0.99747177,0.99747177 0 0 0 9.9824219,7.9414062 C 10.088962,7.5249311 10.33223,6.9910473 10.675781,6.6210938 11.019333,6.2511402 11.40769,6.0175781 12.052734,6.0175781 c 0.321191,0 0.942003,0.1728267 1.367188,0.4453125 0.425184,0.2724858 0.578125,0.5525155 0.578125,0.6894532 0,0.2553097 -0.04308,0.3296178 -0.140625,0.4472656 -0.09754,0.1176478 -0.298398,0.2670302 -0.609375,0.421875 -0.621953,0.3096895 -1.618046,0.5891435 -2.572266,1.1992187 a 0.99747177,0.99747177 0 0 0 -0.0039,0.00195 C 9.9409828,9.6936756 9.452542,10.335628 9.2285156,10.998047 9.0044893,11.660466 9.0049041,12.287578 9.0078125,12.871094 l 0,3.128906 a 0.99747177,0.99747177 0 0 0 0.5761719,0.902344 C 8.6466173,17.636075 8.0019531,18.7265 8.0019531,20 c 0,2.195874 1.8021729,3.998047 3.9980469,3.998047 2.195874,0 3.998047,-1.802173 3.998047,-3.998047 0,-1.27156 -0.643195,-2.359899 -1.578125,-3.09375 A 0.99747177,0.99747177 0 0 0 15.003906,16 l 0,-1.771484 c 0,-0.414562 0.02582,-0.706968 0.06641,-0.824219 0.04024,-0.116251 0.01159,-0.117422 0.236329,-0.216797 0.0019,-8.55e-4 -1.9e-5,-0.0011 0.002,-0.002 1.319679,-0.564819 2.47629,-1.28032 3.328125,-2.273438 0.854162,-0.9958299 1.361328,-2.2848916 1.361328,-3.7597652 0,-4.1892829 -3.625408,-7.15039056 -7.919922,-7.15039067 z" />
    <path
       style="font-style:normal;font-weight:normal;font-size:25.73099327px;line-height:125%;font-family:sans-serif;letter-spacing:0px;word-spacing:0px;fill:#ff6600;fill-opacity:1;stroke:none;stroke-width:1px;stroke-linecap:butt;stroke-linejoin:miter;stroke-opacity:1"
       d="M 12.078125,1 C 6.3401135,1 5,5.7385325 5,5.8671875 l 4.015625,1.8261719 c 0.2830409,-1.1064327 1.184478,-2.6738283 3.037109,-2.6738282 1.157895,0 2.94336,0.8977248 2.94336,2.1328126 0,1.8269005 -2.213612,1.9046942 -3.783203,2.9082032 -1.157895,0.746199 -1.212675,1.672538 -1.207032,2.804687 l 0,3.134766 4,0 0,-1.771484 c 0,-0.849123 0.02554,-1.569115 0.900391,-1.955078 C 17.376426,11.218466 19,9.6739811 19,7.1523438 19,3.5242737 15.937774,1.0000001 12.078125,1 Z M 12,17 c -1.656854,0 -3,1.343146 -3,3 0,1.656854 1.343146,3 3,3 1.656854,0 3,-1.343146 3,-3 0,-1.656854 -1.343146,-3 -3,-3 z"
       id="text5007"
       inkscape:connector-curvature="0"
       sodipodi:nodetypes="sccssccccscsssssss" />
  </g>
</svg>

<svg xmlns="http://www.w3.org/2000/svg" width="24" height="24" viewBox="0 0 24 24"><g font-weight="400" font-size="25.731" font-family="sans-serif" letter-spacing="0" word-spacing="0"><path style="line-height:125%" d="M12.078.002c-3.143 0-5.238 1.354-6.441 2.727A8.068 8.068 0 0 0 4.395 4.63a6.614 6.614 0 0 0-.272.672 3.8 3.8 0 0 0-.07.23c-.01.034-.016.064-.024.102-.008.037-.027.012-.027.232a.997.997 0 0 0 .586.908l4.016 1.827a.997.997 0 0 0 1.378-.66c.107-.417.35-.951.694-1.32.343-.37.732-.604 1.377-.604.32 0 .942.172 1.367.445.425.272.578.552.578.69 0 .255-.043.329-.14.447-.098.117-.299.267-.61.421-.622.31-1.618.59-2.572 1.2a.997.997 0 0 0-.004.002c-.731.47-1.22 1.113-1.443 1.775-.225.662-.224 1.29-.221 1.873V16a.997.997 0 0 0 .576.902c-.937.734-1.582 1.825-1.582 3.098A4.014 4.014 0 0 0 12 23.998 4.014 4.014 0 0 0 15.998 20c0-1.272-.643-2.36-1.578-3.094a.997.997 0 0 0 .584-.906v-1.771c0-.415.026-.707.066-.825.04-.116.012-.117.237-.217l.002-.001c1.32-.565 2.476-1.28 3.328-2.274.854-.996 1.361-2.285 1.361-3.76 0-4.189-3.625-7.15-7.92-7.15z" fill="#7c3100"/><path style="line-height:125%" d="M12.078 1C6.34 1 5 5.739 5 5.867l4.016 1.826C9.299 6.587 10.2 5.02 12.053 5.02c1.158 0 2.943.897 2.943 2.132 0 1.827-2.214 1.905-3.783 2.909-1.158.746-1.213 1.672-1.207 2.804V16h4v-1.771c0-.85.025-1.57.9-1.956C17.376 11.218 19 9.674 19 7.153 19 3.523 15.938 1 12.078 1zM12 17a3 3 0 1 0 0 6 3 3 0 0 0 0-6z" fill="#f60"/></g></svg>
